lib/healthicons/icons/solid/medications/pill_1.svg

<svg fill="none" height="48" viewBox="0 0 48 48" width="48" xmlns="http://www.w3.org/2000/svg"><path clip-rule="evenodd" d="m44 24c0 11.0457-8.9543 20-20 20s-20-8.9543-20-20 8.9543-20 20-20 20 8.9543 20 20zm-9.7929-9.7071c.3905.3905.3905 1.0237 0 1.4142l-18.5 18.5c-.3905.3905-1.0237.3905-1.4142 0s-.3905-1.0237 0-1.4142l18.5-18.5c.3905-.3905 1.0237-.3905 1.4142 0z" fill="#333" fill-rule="evenodd"/></svg>

<svg width="48" height="48" viewBox="0 0 48 48" fill="none" xmlns="http://www.w3.org/2000/svg">
<path fill-rule="evenodd" clip-rule="evenodd" d="M44 24C44 35.0457 35.0457 44 24 44C12.9543 44 4 35.0457 4 24C4 12.9543 12.9543 4 24 4C35.0457 4 44 12.9543 44 24ZM34.2071 14.2929C34.5976 14.6834 34.5976 15.3166 34.2071 15.7071L15.7071 34.2071C15.3166 34.5976 14.6834 34.5976 14.2929 34.2071C13.9024 33.8166 13.9024 33.1834 14.2929 32.7929L32.7929 14.2929C33.1834 13.9024 33.8166 13.9024 34.2071 14.2929Z" fill="#333333"/>
</svg>
